!!!COM: Robert Schumann
!!!CNT: Deutscher
!!!TXO: Deutsche 
!!!OTL: Ich hab'im Traum geweinet
!!!OPR: Dichterliebe
!!!OPS: Opus 48
!!!ONM: No. 13
!!!LYR: Heine
!!!ENC: Brian Bice
!!!YOR: Sa2mtliche Lieder, vol. 1, C.F. Peters
!!!ODT: 1840/
!!NB: Vocal melody and text only encoded.
**kern	**silbe
*clefG2	*
*k[b-e-a-d-g-c-]	*
*M6/8	*
=0	=0
4.r	.
4r	.
{8b-	{Ich
=1	=1
4b-	hab'
8b-	im
4b-	Traum
8b-	ge-
=2	=2
4.cc-	-wei-
4.b-}	-net,}
=4	=4
4r	.
8r	.
4r	.
{8g-	{mir
=5	=5
8.g-	tra2um-
16g-	-te,
8g-	du
8f-	la2-
8e-	-gest
8d-	im
=6	=6
4.e-}	Grab.}
4r	.
8r	.
=7	=7
8r	.
8r	.
{8g-	{Ich
4g-	wach-
8g-	-te
=8	=8
4gn	auf,
8r	.
8r	.
8gn	und
8gn	die
=9	=9
4b-	Tra2-
8a-}	-ne}
4r	.
8r	.
=10	=10
{8.a-	{floss
16e-	noch
16e-	von
16e-	der
8.e-	Wan-
16e-	-ge
8dn	her-
=11	=11
4f}	-ab.}
8r	.
4r;	.
{8b-	{Ich
=12	=12
4b-	hab'
8b-	im
4b-	Traum
8b-	ge-
=13	=13
4.cc	-wei-
4.b-}	-net,}
=15	=15
4r	.
8r	.
4r	.
{8g-	{mir
=16	=16
8.g-	tra2umt',
16g-	du
8g-	ver-
(8f-	-lie-
8e-)	|
8d-	-ssest
=17	=17
4.e-}	mich.}
4r	.
8r	.
=18	=18
4r	.
8r	.
{8g-	{Ich
8g-	wach-
8g-	-te
=19	=19
4gn	auf,
8r	.
8r	.
8gn	und
8gn	ich
=20	=20
4b-	wein-
8a-}	-te}
8r	.
8r	.
{8a-	{noch
=21	=21
4a-	lan-
8e-	-ge
4e-	bit-
8dn	-ter-
=22	=22
4f}	-lich.}
8r	.
4r	.
8r	.
=24	=24
4r	.
8r	.
4r	.
{8b-	{Ich
=25	=25
4b-	hab'
8b-	im
4b-	Traum
8b-	ge-
=26	=26
4.cc	-wei-
4b-}	-net,}
{8b-	{mir
=27	=27
8.b-	tra2um-
16b-	-te,
8b-	du
8ccn	wa2rst
8b-	mir
8a-	noch
=28	=28
4dd-}	gut.}
{8dd-	{Ich
4dd-	wach-
8dd-	-te
=29	=29
[4.dd-	auf,
8dd-]	|
8dd-	und
8dd-	noch
=30	=30
4dd-	im-
[8dd-	-mer
4.dd-]}	|}
=31	=31
{8dd-	{stro2mt
8dd-	mei-
8dd-	-ne
4ff-	Tra2-
8ff-	-nen-
=32	=32
2.ee-}	-flut.}
*-	*-
